modules/hawcons-filled/icons/cloud-sun-fog.svg

<?xml version="1.0" encoding="UTF-8" standalone="no"?>
<svg width="32px" height="32px" viewBox="0 0 32 32" version="1.1" xmlns="http://www.w3.org/2000/svg" xmlns:xlink="http://www.w3.org/1999/xlink" xmlns:sketch="http://www.bohemiancoding.com/sketch/ns">
    <!-- Generator: Sketch 3.0.3 (7891) - http://www.bohemiancoding.com/sketch -->
    <title>icon 25  cloud sun fog</title>
    <desc>Created with Sketch.</desc>
    <defs></defs>
    <g id="Page-1" stroke="none" stroke-width="1" fill="none" fill-rule="evenodd" sketch:type="MSPage">
        <g id="icon-25--cloud-sun-fog" sketch:type="MSArtboardGroup" fill="#929292">
            <path d="M3.10033317,18 C3.1711057,17.6523103 3.27804031,17.317599 3.4170437,17 L3.4170437,17 L29.5848643,17 C29.7233253,17.3175024 29.8297934,17.6521963 29.9002288,18 L3.10033317,18 L3.10033317,18 Z M3,19 C3,19.3424658 3.03433671,19.6768901 3.09977122,20 L3.09977122,20 L29.8996668,20 C29.9654594,19.6767757 30,19.3423353 30,19 L3,19 L3,19 Z M8.10101712,9 C7.78894826,9.30580294 7.50538699,9.64058822 7.25468917,10 L7.25468917,10 L24.9775785,10 C24.9924187,9.835319 25,9.66854485 25,9.5 C25,6.46243373 22.5375663,4 19.5,4 C17.2971895,4 15.3968409,5.29499266 14.5187269,7.16520533 L14.5187269,7.16520533 C14.0297369,7.0570341 13.521529,7 13,7 C11.6803318,7 10.445956,7.36518016 9.39241323,8 L16.6075868,8 C16.2542076,7.78706881 15.8804835,7.60447383 15.4900199,7.45582047 C16.2346236,5.99807813 17.7507549,5 19.5,5 C21.9852815,5 24,7.0147185 24,9.5 C24,9.53313895 23.9996418,9.56619424 23.998929,9.5991622 L23.998929,9.5991622 C23.2491234,9.21607283 22.399795,9 21.5,9 C20.441357,9 19.4525719,9.29909701 18.6135384,9.81739735 C18.3965787,9.52668437 18.1575674,9.25339253 17.8989829,9 L8.10101712,9 L8.10101712,9 L8.10101712,9 Z M6.67363109,11 C6.52129914,11.3206664 6.39262951,11.6547518 6.28987864,12 L6.28987864,12 L26.4002905,12 C26.2173943,11.6422183 25.9964662,11.3071077 25.742838,11 L6.67363109,11 L6.67363109,11 L6.67363109,11 Z M6.07088885,13 C6.02417196,13.326603 6,13.6604787 6,14 L6,14 L26.9775785,14 C26.9466322,13.6565902 26.8841207,13.3222824 26.7929675,13 L6.07088885,13 L6.07088885,13 L6.07088885,13 Z M5.00149591,15 C4.62285631,15.2845141 4.28586845,15.6214836 4.00133323,16 L4.00133323,16 L29.0022,16 C28.717374,15.6203048 28.3797114,15.2825337 28,14.9975864 L28,15 L5.00149591,15 L5.00149591,15 L5.00149591,15 Z M4,22.0029306 C3.76820444,21.6943993 3.57131711,21.3581364 3.41513574,21 L3.41513574,21 L29.5829563,21 C29.426753,21.356898 29.2300536,21.6921867 28.9986668,22 L4,22 L4,22.0029306 L4,22.0029306 L4,22.0029306 Z M4.99678642,23 C5.83212269,23.6279105 6.87136383,24 7.99943992,24 L25.0005601,24 C26.1252678,24 27.163232,23.627633 27.9985041,23 L4.99678642,23 L4.99678642,23 L4.99678642,23 Z M19.5,0 C19.2238576,0 19,0.215752602 19,0.495388985 L19,2.50461102 C19,2.7782068 19.2319336,3 19.5,3 C19.7761424,3 20,2.7842474 20,2.50461102 L20,0.495388985 C20,0.221793203 19.7680664,0 19.5,0 L19.5,0 Z M26.2330514,2.78892122 C26.0377893,2.59365907 25.7269379,2.58792796 25.5292051,2.78566074 L24.1084706,4.20639526 C23.9150092,4.3998567 23.9221795,4.72068999 24.1117311,4.91024156 C24.3069932,5.10550371 24.6178446,5.11123483 24.8155774,4.91350204 L26.2363119,3.49276752 C26.4297733,3.29930609 26.422603,2.97847279 26.2330514,2.78892122 L26.2330514,2.78892122 Z M29.0219727,9.52197266 C29.0219727,9.24583028 28.8062201,9.02197266 28.5265837,9.02197266 L26.5173616,9.02197266 C26.2437659,9.02197266 26.0219727,9.25390625 26.0219727,9.52197266 C26.0219727,9.79811503 26.2377253,10.0219727 26.5173616,10.0219727 L28.5265837,10.0219727 C28.8001795,10.0219727 29.0219727,9.79003906 29.0219727,9.52197266 L29.0219727,9.52197266 Z M12.7669486,2.78892122 C12.5716864,2.98418337 12.5659553,3.29503474 12.7636881,3.49276752 L14.1844226,4.91350204 C14.377884,5.10696348 14.6987173,5.09979314 14.8882689,4.91024156 C15.0835311,4.71497942 15.0892622,4.40412805 14.8915294,4.20639526 L13.4707949,2.78566074 C13.2773334,2.59219931 12.9565001,2.59936965 12.7669486,2.78892122 L12.7669486,2.78892122 Z" id="cloud-sun-fog" sketch:type="MSShapeGroup"></path>
        </g>
    </g>
</svg>

<svg width="32" height="32" viewBox="0 0 32 32" xmlns="http://www.w3.org/2000/svg"><path d="M3.1 18c.071-.348.178-.682.317-1h26.168c.138.318.245.652.315 1H3.1zM3 19c0 .342.034.677.1 1h26.8c.065-.323.1-.658.1-1H3zM8.101 9c-.312.306-.596.64-.846 1h17.723a5.5 5.5 0 0 0-10.459-2.835A7.025 7.025 0 0 0 9.392 8h7.216a6.971 6.971 0 0 0-1.118-.544 4.5 4.5 0 0 1 8.509 2.143C23.249 9.216 22.399 9 21.5 9c-1.059 0-2.047.3-2.886.817A7.04 7.04 0 0 0 17.899 9H8.101zm-1.427 2c-.153.32-.281.655-.384 1H26.4a5.508 5.508 0 0 0-.657-1H6.673zm-.603 2A7.06 7.06 0 0 0 6 14h20.978a5.48 5.48 0 0 0-.185-1H6.071zM5 15a5.038 5.038 0 0 0-1 1h25.001A5.02 5.02 0 0 0 28 14.998V15H5.001zM4 22.003A4.992 4.992 0 0 1 3.415 21h26.168a5.003 5.003 0 0 1-.584 1H4v.003zm.997.997c.835.628 1.874 1 3.002 1h17.002a4.974 4.974 0 0 0 2.998-1H4.997zM19.5 0c-.276 0-.5.216-.5.495v2.01c0 .273.232.495.5.495.276 0 .5-.216.5-.495V.495A.503.503 0 0 0 19.5 0zm6.733 2.789a.494.494 0 0 0-.704-.003l-1.42 1.42a.503.503 0 0 0 .003.704.494.494 0 0 0 .704.004l1.42-1.421a.503.503 0 0 0-.003-.704zm2.789 6.733c0-.276-.216-.5-.495-.5h-2.01a.503.503 0 0 0-.495.5c0 .276.216.5.495.5h2.01a.503.503 0 0 0 .495-.5zM12.767 2.789a.494.494 0 0 0-.003.704l1.42 1.42a.503.503 0 0 0 .704-.003.494.494 0 0 0 .004-.704l-1.421-1.42a.503.503 0 0 0-.704.003z" fill="#929292" fill-rule="evenodd"/></svg>
